packages/icons/svgs/solid/Source=sun.svg

<svg width="12" height="12" viewBox="0 0 12 12" fill="none" xmlns="http://www.w3.org/2000/svg">
<g clip-path="url(#clip0_669_697)">
<path fill-rule="evenodd" clip-rule="evenodd" d="M6.75 1.18021e-06L5.25 9.17939e-07L5.25 1.5L6.75 1.5L6.75 1.18021e-06ZM10.7205 2.28866L9.66019 1.22756L8.59909 2.28791L9.65944 3.34901L10.7205 2.28866ZM10.5 5.25L12 5.25L12 6.75L10.5 6.75L10.5 5.25ZM8.65146 9.76457L9.71255 10.8249L10.7729 9.76382L9.7118 8.70347L8.65146 9.76457ZM5.25 12L5.25 10.5L6.75 10.5L6.75 12L5.25 12ZM1.17464 9.71141L2.23499 10.7725L3.29609 9.71216L2.23574 8.65106L1.17464 9.71141ZM-9.17939e-07 5.25L1.5 5.25L1.5 6.75L-1.18021e-06 6.75L-9.17939e-07 5.25ZM3.34845 2.34025L2.28735 1.2799L1.227 2.341L2.2881 3.40135L3.34845 2.34025ZM3 6C3 4.35 4.35 3 6 3C7.65 3 9 4.35 9 6C9 7.65 7.65 9 6 9C4.35 9 3 7.65 3 6Z" fill="black"/>
</g>
<defs>
<clipPath id="clip0_669_697">
<rect width="12" height="12" fill="white"/>
</clipPath>
</defs>
</svg>

<svg xmlns="http://www.w3.org/2000/svg" width="12" height="12" viewBox="0 0 12 12"><g clip-path="url(#a)"><path fill-rule="evenodd" d="M6.75 0h-1.5v1.5h1.5V0Zm3.97 2.289L9.66 1.228 8.6 2.288l1.06 1.061 1.06-1.06ZM10.5 5.25H12v1.5h-1.5v-1.5ZM8.651 9.765l1.062 1.06 1.06-1.061-1.061-1.06-1.06 1.06ZM5.25 12v-1.5h1.5V12h-1.5ZM1.175 9.711l1.06 1.062 1.061-1.06-1.06-1.062-1.061 1.06ZM0 5.25h1.5v1.5H0v-1.5Zm3.348-2.91-1.06-1.06-1.062 1.06L2.287 3.4l1.06-1.06ZM3 6c0-1.65 1.35-3 3-3s3 1.35 3 3-1.35 3-3 3-3-1.35-3-3Z" clip-rule="evenodd"/></g><defs><clipPath id="a"><path fill="#fff" d="M0 0h12v12H0z"/></clipPath></defs></svg>
